!!!OTL: Schoenster Schatz mein Augentrost
!!!OTL-incipit: Ach schoenster Schatz, mein Augentrost, hast meiner ganz vergessen ?
!!!ARE: Europa, Mitteleuropa, Deutschland, Untermainfranken, Spessart
!!!SCT: D0179
!!!TXL: @@DE
!!!YEM: Copyright 1995, estate of Helmut Schaffrath.
**kern	**text
*ICvox	*
*M3/4	*
*k[f#]	*
*G:	*
{8d	.
=1	=1
8d	Schön-
16eL	-ster
16f#J	.
4g	Schatz,
4b	mein
=2	=2
(16bqq	.
8a)	Au-
8a	-gen-
8g}	-trost,
{8a	hast
8b	mei-
8cc	-ner
=3	=3
8.ddL	ganz
16ee	.
8ddJ	.
8b	ver-
8cc^^L	-ges-
8ddJ	.
=4	=4
4b	-sen?
4r	.
8r}	.
{8d	Du
=5	=5
8g	hast
8b	mir
(4dd	ja
8ee)	.
8dd	die
=6	=6
8cc	Treu
8b	ver-
4.cc}	-sagt
{8dd	und
=7	=7
8b	mir
8a	mein
8bL	Herz
8dd	.
8ccJ	.
8b	so
=8	=8
8a	schwer
8g	ge-
8a;}	-macht,
{8d	ganz-
8g	-lich
8b	hast
=9	=9
8ddL	mich
8eeJ	.
4dd	ver-
8cc^^L	-las-
8ddJ	.
=10	=10
4b	-sen.
4r	.
8r}	.
==	==
!!!AGN: Liebes - Lied, Liebeslust
!! Inzipit = Variante zum Lied; Verzierung
!!!ONB: ESAC (Essen Associative Code) Database: DVA
!!!AMT: simple triple
!!!AIN: vox
!!!EED: Helmut Schaffrath
!!!EEV: 1.0
!!!source: Erk, L.: "Deutscher Liederhort". Berlin 1856. S.244. Nr. 94.
!!!ENC: Anna Maria Matuszewska
!!!EEV: 2025/04/04
*-	*-
